public/logoTitle.svg

<svg height="33" viewBox="0 0 261 33" width="261" xmlns="http://www.w3.org/2000/svg"><path clip-rule="evenodd" d="m8.69652 7.99881h2.63938c2.5101 0 4.0246.52468 5.3224 1.79114 1.2548 1.26775 1.9902 3.23535 1.9902 5.55185 0 1.9662-.5194 3.7587-1.4708 5.0264-1.0825 1.4423-2.64 2.0981-5.0197 2.0535h-3.46148zm-8.69652-7.299669v29.110159h12.7211c5.0184 0 8.091-1.0055 10.6436-3.4538 2.7692-2.666 4.1101-6.2496 4.1101-11.1449 0-8.96096-5.5808-14.511459-14.5807-14.511459zm53.7171 8.829779c-.0862-6.0319-4.3261-9.4856336-11.6817-9.4856336-7.0099 0-11.6831 3.6714736-11.6831 9.1360636 0 2.31585.7791 4.28335 2.1637 5.55045 1.3422 1.2678 3.0283 2.0109 7.8751 3.4531 5.0621 1.5295 5.7981 1.923 5.7981 3.1908 0 1.6606-1.1687 2.5355-3.4615 2.5355-3.1594 0-4.4566-1.1373-4.6739-3.9338h-8.8257c.0424 6.5113 5.0184 10.4458 13.0239 10.4458 7.7882 0 12.6337-3.7581 12.6337-9.8779 0-2.5355-1.0381-4.7208-2.9421-6.207-1.3409-1.0493-3.2886-1.8357-6.9661-2.8844l-2.2061-.5686c-3.5053-.96087-3.9379-1.26715-3.9379-2.40375 0-1.35565 1.0382-2.09874 2.9422-2.09874 2.3359 0 3.5913 1.05003 3.635 3.14811zm20.3841 7.21178-3.9372 3.9338 2.5956 2.5349c-.5187.2617-.8652.3489-1.5138.3489-3.2892 0-5.4953-3.3219-5.4953-8.2165 0-5.157 2.1199-8.1733 5.7113-8.1733 3.6351 0 5.6683 2.8851 5.6683 8.0421 0 2.0541-.1729 3.278-.6055 4.065zm12.0295 12.2822-3.6345-3.76c2.1624-2.0535 3.504-5.9434 3.504-10.1835 0-8.69859-6.0579-15.0794-14.3224-15.0794-8.6104 0-14.7968 6.42541-14.7968 15.3857 0 9.0915 5.7114 15.2099 14.1919 15.2099 2.8984 0 5.1482-.5686 7.0092-1.7485l4.1107 4.1529zm29.6563-28.323759h-8.827v17.833959c0 3.059-1.342 4.5012-4.154 4.5012-3.029 0-4.4136-1.4422-4.4136-4.5012v-17.833959h-8.8263v17.133559c0 3.5836.3458 5.4639 1.427 7.2997 2.0338 3.497 5.8418 5.1569 11.6399 5.1569 4.499 0 7.529-.8296 9.778-2.8405 1.342-1.1805 2.294-2.71 2.813-4.5017.433-1.355.563-2.754.563-5.0265zm18.415 18.882059h-5.755l.822-2.666.735-2.4484c.476-1.4415.736-2.4469 1.471-4.85065l.649 2.44765.607 2.3598.69 2.3604zm1.556-18.882059h-8.696l-10.687 29.110159h8.956l1.471-4.1083h9.259l1.386 4.1083h8.956zm21.298 6.731699h4.369c2.727 0 4.069 1.00477 4.069 2.97166 0 2.0109-1.169 3.0156-3.592 2.9717h-4.846zm-8.74-6.731699v29.110159h8.783v-10.2281h3.721c3.418 0 4.413 1.1805 4.846 5.8574l.173 1.66c.13 1.7052.216 2.0109.519 2.7107h8.74l-.129-.2184c-.303-.4368-.476-1.3117-.606-2.9278l-.302-3.0608c-.391-4.0211-1.732-6.3809-4.198-7.2112 2.597-1.1805 4.241-3.9338 4.241-7.12453 0-2.14267-.649-4.02104-1.991-5.50787-1.947-2.22859-4.413-3.059559-9.087-3.059559zm54.055 0h-23.885v29.110159h24.317v-7.2558h-15.706v-4.5457h13.889v-6.4693h-13.889v-3.93386h15.274zm13.46 7.299669h2.64c2.509 0 4.024.52468 5.321 1.79114 1.255 1.26775 1.991 3.23535 1.991 5.55185 0 1.9662-.519 3.7587-1.47 5.0264-1.084 1.4423-2.64 2.0981-5.02 2.0535h-3.462zm-8.697-7.299669v29.110159h12.721c5.019 0 8.092-1.0055 10.645-3.4538 2.769-2.666 4.11-6.2496 4.11-11.1449 0-8.96096-5.581-14.511459-14.582-14.511459zm53.866 22.247959-6.189.0432c-2.378 0-4.023.0873-8.176.4375.863-.524 1.556-.8743 1.99-1.1366.129-.0433.648-.3496 1.644-.831 2.553-1.2671 4.845-2.666 6.533-3.9764 2.467-1.8804 3.678-4.2401 3.678-7.2564 0-5.50721-4.414-9.09146-11.163-9.09146-3.721 0-6.836 1.05002-8.957 3.01628-2.207 2.09742-3.115 4.6769-3.115 8.82908l.043.3929h7.529c.086-3.67083 1.341-5.24422 4.197-5.24422 2.076 0 3.419 1.09265 3.419 2.79652 0 1.618-.736 2.4477-3.722 4.2401-2.293 1.355-3.894 2.3605-4.976 3.1036-1.395.9723-2.712 2.0539-3.937 3.2346-1.99 2.0535-3.116 4.8507-3.116 7.8677 0 .0872 0 .2623.044.4368h24.274z" fill="#fff" fill-rule="evenodd"/></svg>

<svg xmlns:xlink="http://www.w3.org/1999/xlink" xmlns="http://www.w3.org/2000/svg" width="261" height="33" viewBox="0 0 261 33" aria-label="DSQUARED2" focusable="false">
                    <path fill-rule="evenodd" clip-rule="evenodd" d="M8.69652 7.99881H11.3359C13.846 7.99881 15.3605 8.52349 16.6583 9.78995C17.9131 11.0577 18.6485 13.0253 18.6485 15.3418C18.6485 17.308 18.1291 19.1005 17.1777 20.3682C16.0952 21.8105 14.5377 22.4663 12.158 22.4217H8.69652V7.99881ZM0 0.699141V29.8093H12.7211C17.7395 29.8093 20.8121 28.8038 23.3647 26.3555C26.1339 23.6895 27.4748 20.1059 27.4748 15.2106C27.4748 6.24964 21.894 0.699141 12.8941 0.699141H0ZM53.7171 9.52892C53.6309 3.49702 49.391 0.0432864 42.0354 0.0432864C35.0255 0.0432864 30.3523 3.71476 30.3523 9.17935C30.3523 11.4952 31.1314 13.4627 32.516 14.7298C33.8582 15.9976 35.5443 16.7407 40.3911 18.1829C45.4532 19.7124 46.1892 20.1059 46.1892 21.3737C46.1892 23.0343 45.0205 23.9092 42.7277 23.9092C39.5683 23.9092 38.2711 22.7719 38.0538 19.9754H29.2281C29.2705 26.4867 34.2465 30.4212 42.252 30.4212C50.0402 30.4212 54.8857 26.6631 54.8857 20.5433C54.8857 18.0078 53.8476 15.8225 51.9436 14.3363C50.6027 13.287 48.655 12.5006 44.9775 11.4519L42.7714 10.8833C39.2661 9.92243 38.8335 9.61615 38.8335 8.47955C38.8335 7.1239 39.8717 6.38081 41.7757 6.38081C44.1116 6.38081 45.367 7.43084 45.4107 9.52892H53.7171ZM74.1012 16.7407L70.164 20.6745L72.7596 23.2094C72.2409 23.4711 71.8944 23.5583 71.2458 23.5583C67.9566 23.5583 65.7505 20.2364 65.7505 15.3418C65.7505 10.1848 67.8704 7.1685 71.4618 7.1685C75.0969 7.1685 77.1301 10.0536 77.1301 15.2106C77.1301 17.2647 76.9572 18.4886 76.5246 19.2756L74.1012 16.7407ZM86.1307 29.0229L82.4962 25.2629C84.6586 23.2094 86.0002 19.3195 86.0002 15.0794C86.0002 6.38081 79.9423 0 71.6778 0C63.0674 0 56.881 6.42541 56.881 15.3857C56.881 24.4772 62.5924 30.5956 71.0729 30.5956C73.9713 30.5956 76.2211 30.027 78.0821 28.8471L82.1928 33L86.1307 29.0229ZM115.787 0.699141H106.96V18.5331C106.96 21.5921 105.618 23.0343 102.806 23.0343C99.777 23.0343 98.3924 21.5921 98.3924 18.5331V0.699141H89.5661V17.8327C89.5661 21.4163 89.9119 23.2966 90.9931 25.1324C93.0269 28.6294 96.8349 30.2893 102.633 30.2893C107.132 30.2893 110.162 29.4597 112.411 27.4488C113.753 26.2683 114.705 24.7388 115.224 22.9471C115.657 21.5921 115.787 20.1931 115.787 17.9206V0.699141ZM134.202 19.5812H128.447L129.269 16.9152L130.004 14.4668C130.48 13.0253 130.74 12.0199 131.475 9.61615L132.124 12.0638L132.731 14.4236L133.421 16.784L134.202 19.5812ZM135.758 0.699141H127.062L116.375 29.8093H125.331L126.802 25.701H136.061L137.447 29.8093H146.403L135.758 0.699141ZM157.056 7.43084H161.425C164.152 7.43084 165.494 8.43561 165.494 10.4025C165.494 12.4134 164.325 13.4181 161.902 13.3742H157.056V7.43084ZM148.316 0.699141V29.8093H157.099V19.5812H160.82C164.238 19.5812 165.233 20.7617 165.666 25.4386L165.839 27.0986C165.969 28.8038 166.055 29.1095 166.358 29.8093H175.098L174.969 29.5909C174.666 29.1541 174.493 28.2792 174.363 26.6631L174.061 23.6023C173.67 19.5812 172.329 17.2214 169.863 16.3911C172.46 15.2106 174.104 12.4573 174.104 9.26657C174.104 7.1239 173.455 5.24553 172.113 3.7587C170.166 1.53011 167.7 0.699141 163.026 0.699141H148.316ZM202.371 0.699141H178.486V29.8093H202.803V22.5535H187.097V18.0078H200.986V11.5385H187.097V7.60464H202.371V0.699141ZM215.831 7.99881H218.471C220.98 7.99881 222.495 8.52349 223.792 9.78995C225.047 11.0577 225.783 13.0253 225.783 15.3418C225.783 17.308 225.264 19.1005 224.313 20.3682C223.229 21.8105 221.673 22.4663 219.293 22.4217H215.831V7.99881ZM207.134 0.699141V29.8093H219.855C224.874 29.8093 227.947 28.8038 230.5 26.3555C233.269 23.6895 234.61 20.1059 234.61 15.2106C234.61 6.24964 229.029 0.699141 220.028 0.699141H207.134ZM261 22.9471L254.811 22.9903C252.433 22.9903 250.788 23.0776 246.635 23.4278C247.498 22.9038 248.191 22.5535 248.625 22.2912C248.754 22.2479 249.273 21.9416 250.269 21.4602C252.822 20.1931 255.114 18.7942 256.802 17.4838C259.269 15.6034 260.48 13.2437 260.48 10.2274C260.48 4.72019 256.066 1.13594 249.317 1.13594C245.596 1.13594 242.481 2.18596 240.36 4.15222C238.153 6.24964 237.245 8.82912 237.245 12.9813L237.288 13.3742H244.817C244.903 9.70337 246.158 8.12998 249.014 8.12998C251.09 8.12998 252.433 9.22263 252.433 10.9265C252.433 12.5445 251.697 13.3742 248.711 15.1666C246.418 16.5216 244.817 17.5271 243.735 18.2702C242.34 19.2425 241.023 20.3241 239.798 21.5048C237.808 23.5583 236.682 26.3555 236.682 29.3725C236.682 29.4597 236.682 29.6348 236.726 29.8093H261V22.9471Z" fill="white"></path>
                </svg>
